X:1
T:Prélude
T:Courante - La Victoire
T:François Campion (1686-1746) Arr.Marieh
T:"Nouvelles découvertes Sur la Guitarre" (Paris, 1705)
C:François Campion
%%score { ( 1 2 ) ( 3 4 ) }
L:1/8
Q:1/4=126
M:3/4
K:G
V:1 treble-8 nm="Guitare classique"
V:2 treble-8 
V:3 tab stafflines=6 strings=E2,A2,D3,G3,B3,E4 nostems nm="Guitare classique [Tablature]"
V:4 tab stafflines=6 strings=E2,A2,D3,G3,B3,E4 nostems 
V:1
 !arpeggio![Be] |[Q:1/4=60] x3[Q:1/4=126] B e2 | e2 d3 c | [GB]3 B g2 | g2 f3 e |"^₵4" ^d6 | %6
 [Be]2 [A^d]2 e2 | B3 A GF | G4 B2 | !arpeggio![Gce]3 d cB | A4 A2 | d3 e dc | B2 A2 dc | %13
 [GB]3 B ^c^d | [Be]2 f4 | g3 f ef | ^A6 | f3 e d^c | d2 ^c3 !2!^A | !4!B2 B,!0!B !3!FB |1 %20
 x3 x2 :|2 [B,FB]3 ^d e"^C2"!1!f |: B2 A3 B | ^G3 !1!G !3!AB | c2 [Bd]2 cB | c3 d e2 | =f2 B3 A | %27
 A3 !1!A !0!G!1!A | !2!F3 !1!d !4!cd | [GB]3 c d2 | e2 A3 G | G3 d ef | g2 f3 g | x3 ^c ^de | %34
 f2 !4!e3 !1!f | x3 z z2 | [Bd]=f ed (cB) | c4 z2 | A(c B)A GF | G3 A [GB]2 | e2 e3 !4!^d |1 %41
 !arpeggio![E,GBe]3 ^d ef :|2[Q:1/4=60] !arpeggio!!1!!2![E,B,EGBe]6 |] %43
V:2
 x | !arpeggio![E,B,EGBe]3 z3 | E2 F4 | G,6 | G2 A4 | B3 c BA | G2 F2 E2 | ^D4 B,2 | E2 E,2 D2 | %9
 C4 A,2 | D3 E DC | B,3 c BA | G,2 D4 | G,3 A GF | E2 ^D4 | [E,E]4 E2 | !3!F3 !4!G FE | D4 ^A,2 | %18
 B,2 !3!F4 | z2 !1!B,2 F2 |1 [B,FB]3- [B,FB]2 :|2 x3 z z2 |: [B,F]2 ^C4 | D4 !4!C!2!B, | %24
 A,2 ^G,2 E,2 | A,3 B, C2 | D2 E4 | !arpeggio![A,E]4 !2!^C2 | !3!D4 F2 | G,3 A, B,2 | C2 D4 | %31
 G,3 z z2 | G2 A2 B2 | !arpeggio![CGce]3 z z2 | F2 !0!G2"^C2" !1!A2 | !arpeggio![B,B^d]3 C B,A, | %36
 ^G,4 E2 | (AG) F(E ^D)^C | ^D4 B,2 | E3 F G,2 | A,2 !1!B,4 |1 x3 z z2 :|2 x6 |] %43
V:3
 !arpeggio![!2!B,!1!E] | !4!E,3 !2!B, !1!E2 | !1!E2 !2!D3 !3!C | [!3!G,!2!B,]3 !2!B, !1!G2 | %4
 !1!G2 !1!F3 !1!E | !2!^D6 | [!2!B,!1!E]2 [!3!A,!2!^D]2 !1!E2 | !2!B,3 !3!A, !3!G, !4!F, | %8
 !3!G,4 !2!B,2 | [!3!G,!2!C!1!E]3 !2!D !2!C !2!B, | !3!A,4 !3!A,2 | !2!D3 !1!E !2!D !2!C | %12
 !2!B,2 !3!A,2 !2!D !2!C | [!3!G,!2!B,]3 !2!B, !2!^C !2!^D | [!2!B,!1!E]2 !1!F4 | %15
 !1!G3 !1!F !1!E !1!F | !3!^A,6 | !1!F3 !1!E !2!D !2!^C | !2!D2 !2!^C3 !3!^A, | %19
 !3!B,2 !5!B,, !2!B, !4!F, !2!B, |1 x3 x2 :|2 [!5!B,,!4!F,!2!B,]3 !2!^D !1!E !1!F |: %22
 !2!B,2 !3!A,3 !2!B, | !3!^G,3 !3!G, !3!A, !2!B, | !2!C2 [!3!B,!2!D]2 !2!C !2!B, | %25
 !2!C3 !2!D !1!E2 | !1!=F2 !2!B,3 !3!A, | !3!A,3 !3!A, !3!G, !3!A, | !4!F,3 !2!D !3!C !2!D | %29
 [!3!G,!2!B,]3 !2!C !2!D2 | !1!E2 !3!A,3 !3!G, | !3!G,3 !2!D !2!E !1!F | !1!G2 !1!F3 !1!G | %33
 x3 !2!^C !2!^D !2!E | !1!F2 !2!E3 !1!F | x3 x x2 | [!3!B,!2!D] !1!=F !1!E !2!D (!2!C !2!B,) | %37
 !2!C6 | !3!A, (!2!C !2!B,) !3!A, !3!G, !4!F, | !3!G,3 !3!A, [!3!G,!2!B,]2 | !1!E2 !1!E3 !2!^D |1 %41
 [!6!E,,!3!G,!2!B,!1!E]3 !2!^D !1!E !1!F :|2 [!6!E,,!5!B,,!4!E,!3!G,!2!B,!1!E]6 |] %43
V:4
 x | !arpeggio![!6!E,,!5!B,,!3!G,!2!B,!1!E]3 x3 | !4!E,2 !4!F,4 | !6!G,,6 | !3!G,2 !3!A,4 | %5
 !3!B,3 !3!C !3!B, !4!A, | !3!G,2 !4!F,2 !4!E,2 | !4!^D,4 !5!B,,2 | !4!E,2 !6!E,,2 !4!D,2 | %9
 !5!C,4 !5!A,,2 | !4!D,3 !4!E, !4!D, !5!C, | !5!B,,3 !2!C !3!B, !3!A, | !6!G,,2 !4!D,4 | %13
 !6!G,,3 !3!A, !3!G, !4!F, | !4!E,2 !4!^D,4 | [!6!E,,!4!E,]4 !4!E,2 | !4!F,3 !4!G, !4!F, !4!E, | %17
 !4!D,4 !5!^A,,2 | !5!B,,2 !4!F,4 | x2 x2 x2 |1 [!5!B,,!4!F,!2!B,]3- [!5!B,,!4!F,!2!B,]2 :|2 x6 |: %22
 [!5!B,,!4!F,]2 !5!^C,4 | !4!D,4 !5!C, !5!B,, | !5!A,,2 !6!^G,,2 !6!E,,2 | !5!A,,3 !5!B,, !5!C,2 | %26
 !4!D,2 !4!E,4 | [!5!A,,!4!E,]4 !5!^C,2 | !5!D,4 !4!F,2 | !6!G,,3 !5!A,, !5!B,,2 | !5!C,2 !4!D,4 | %31
 !6!G,,3 x x2 | !4!G,2 !3!A,2 !2!B,2 | [!5!C,!3!G,!2!C!1!E]3 x x2 | !4!F,2 !3!G,2 !3!A,2 | %35
 [!5!B,,!3!B,!2!^D]3 !5!C, !5!B,, !5!A,, | !6!^G,,4 !4!E,2 | %37
 (!3!A, !3!G,) !4!F, (!4!E, !4!^D,) !5!^C, | !4!^D,4 !5!B,,2 | !4!E,3 !4!F, !6!G,,2 | %40
 !5!A,,2 !5!B,,4 |1 x3 x x2 :|2 x6 |] %43

